X: 072
T: 8 La Colombe
T: la Colombe
B: Robert Landrin "Potpourri fran\,cois des contre-danse ancienne tel quil se danse chez la Reine ..." 1760 p.7 #2  dance 02 #8
S: http://memory.loc.gov/cgi-bin/query/D?musdibib:2:./temp/~ammem_EbRS:
Z: 2014 John Chambers <jc:trillian.mit.edu>
N: There's an odd |:| symbol between the two strains. Transcribed as a plain double bar line.
M: 6/8
L: 1/8
K: Gm
% - - - - - - - - - - - - - - - - - - - - - - - - -
!segno!GAB |\
Bcd d=e^f | g3 gfe |\
dcB Adc | B2A GAB |\
Bcd d=e^f | g3 gfe |\
dcB AG^F | HG3 |]
AB!f!c |\
!+!B2A ABc | !+!B2A cBA |\
BAG ^FGA | D3 ABc |\
!+!B2A ABc | !+!B2A Bcd |\
Bcd dcB | A3 !segno!|]
% - - - - - - - - - - - - - - - - - - - - - - - - -

%%sep 1 1 500
%%sep 1 1 500
